X:1009
T:Baille de Panderu (CT 046)
R:Panderu
C:Tradicional
S:Música Tradicional Asturiana, (C) Tello & Tito. Asturies, 2001.
S:http://pagina.de/MusTradAst <telloytito@asturies.org>
N:Canción de baile de pandero, transcrita en Villamarcel, ayuntamiento de Quirós.
O:Villamarcel (Quirós)
A:Asturies
Z:Cancioneru de Torner 046
M:6/8
L:1/8
Q:3/8=88
W:Agora sal a baillar
W:un amigu que yo tengo
W:y por eso voi dar
W:y por eso voi dar
W:un golpe más de panderu.
K:C
|:GGG GBc|d6|cdd cdd|c2B- B2z:|
|cdd cdc|(B3/2A/2G-) G3|GGG GBc|
(d3/2c/4B/4c-) c3|BBA GAA|G2G- G2z||


